public/images/clients/lvmh.svg

<svg xmlns="http://www.w3.org/2000/svg" width="1518" height="354" baseProfile="tiny-ps" version="1.2"><style></style><path id="Layer" d="M525.82 9.72c18.94 0 32.62 10.51 32.62 29.44 0 10.51-4.21 24.18-11.57 41.01l-81.04 199.77-91.55-207.13c-7.37-15.78-10.53-27.34-10.53-38.91 0-12.61 10.53-24.18 33.68-24.18V.26H262.72v9.46c27.37 0 35.78 9.46 51.57 46.26l129.44 297.56h7.37l121.02-294.4c14.74-34.7 33.68-50.47 48.41-50.47V.26h-93.66v9.46h-1.05ZM.68.26v9.46c37.89 0 46.31 9.46 46.31 41.01v231.31c0 49.42-7.37 54.67-46.31 54.67v9.47h265.2l29.47-93.58-7.37-2.1c-28.41 70.44-48.41 80.96-108.39 80.96h-36.84c-46.3 0-48.41-1.05-48.41-57.83V63.34c0-43.11 8.42-52.57 54.73-52.57V.26H.68Zm1097.63 9.46V.26h-86.29L885.73 273.63 754.19.26h-88.4v9.46c36.83 0 45.25 11.57 45.25 45.21v226.06c0 49.42-9.47 54.67-45.25 54.67v9.47h107.34v-9.47c-36.83 0-45.25-5.25-45.25-54.67V54.93l133.65 290.2h8.42l132.6-290.2v226.06c0 49.42-7.37 54.67-48.41 54.67v9.47h144.17v-9.47c-39.99 0-46.3-6.31-46.3-54.67V49.67c0-30.49 9.47-39.95 46.3-39.95Zm142.08 54.67c0-48.36 7.36-54.67 46.3-54.67V.26h-141.02v9.46c39.99 0 46.31 6.31 46.31 54.67v216.6c0 48.36-7.37 54.67-46.31 54.67v9.47h141.02v-9.47c-39.99 0-46.3-6.31-46.3-54.67v-91.48c0-9.46 4.21-12.61 14.73-12.61h152.59c11.58 0 14.74 4.2 14.74 15.77v88.32c0 48.36-7.37 54.67-46.31 54.67v9.47h141.02v-9.47c-39.99 0-46.3-6.31-46.3-54.67V64.39c0-48.36 7.36-54.67 46.3-54.67V.26h-141.02v9.46c39.99 0 46.31 6.31 46.31 54.67v80.96c0 12.62-3.16 15.78-14.74 15.78h-153.64c-10.53 0-14.74-3.16-14.74-11.57V64.39h1.06Z" style="fill:#fff"/></svg>

<?xml version="1.0" encoding="UTF-8" standalone="no"?>
<!DOCTYPE svg PUBLIC "-//W3C//DTD SVG 1.1//EN" "http://www.w3.org/Graphics/SVG/1.1/DTD/svg11.dtd">
<svg width="100%" height="100%" viewBox="0 0 1518 354" version="1.1" xmlns="http://www.w3.org/2000/svg" xmlns:xlink="http://www.w3.org/1999/xlink" xml:space="preserve" xmlns:serif="http://www.serif.com/" style="fill-rule:evenodd;clip-rule:evenodd;stroke-linejoin:round;stroke-miterlimit:2;">
    <path id="Layer" d="M525.82,9.72C544.76,9.72 558.44,20.23 558.44,39.16C558.44,49.67 554.23,63.34 546.87,80.17L465.83,279.94L374.28,72.81C366.91,57.03 363.75,45.47 363.75,33.9C363.75,21.29 374.28,9.72 397.43,9.72L397.43,0.26L262.72,0.26L262.72,9.72C290.09,9.72 298.5,19.18 314.29,55.98L443.73,353.54L451.1,353.54L572.12,59.14C586.86,24.44 605.8,8.67 620.53,8.67L620.53,0.26L526.87,0.26L526.87,9.72L525.82,9.72ZM0.68,0.26L0.68,9.72C38.57,9.72 46.99,19.18 46.99,50.73L46.99,282.04C46.99,331.46 39.62,336.71 0.68,336.71L0.68,346.18L265.88,346.18L295.35,252.6L287.98,250.5C259.57,320.94 239.57,331.46 179.59,331.46L142.75,331.46C96.45,331.46 94.34,330.41 94.34,273.63L94.34,63.34C94.34,20.23 102.76,10.77 149.07,10.77L149.07,0.26L0.68,0.26ZM1098.31,9.72L1098.31,0.26L1012.02,0.26L885.73,273.63L754.19,0.26L665.79,0.26L665.79,9.72C702.62,9.72 711.04,21.29 711.04,54.93L711.04,280.99C711.04,330.41 701.57,335.66 665.79,335.66L665.79,345.13L773.13,345.13L773.13,335.66C736.3,335.66 727.88,330.41 727.88,280.99L727.88,54.93L861.53,345.13L869.95,345.13L1002.55,54.93L1002.55,280.99C1002.55,330.41 995.18,335.66 954.14,335.66L954.14,345.13L1098.31,345.13L1098.31,335.66C1058.32,335.66 1052.01,329.35 1052.01,280.99L1052.01,49.67C1052.01,19.18 1061.48,9.72 1098.31,9.72ZM1240.39,64.39C1240.39,16.03 1247.75,9.72 1286.69,9.72L1286.69,0.26L1145.67,0.26L1145.67,9.72C1185.66,9.72 1191.98,16.03 1191.98,64.39L1191.98,280.99C1191.98,329.35 1184.61,335.66 1145.67,335.66L1145.67,345.13L1286.69,345.13L1286.69,335.66C1246.7,335.66 1240.39,329.35 1240.39,280.99L1240.39,189.51C1240.39,180.05 1244.6,176.9 1255.12,176.9L1407.71,176.9C1419.29,176.9 1422.45,181.1 1422.45,192.67L1422.45,280.99C1422.45,329.35 1415.08,335.66 1376.14,335.66L1376.14,345.13L1517.16,345.13L1517.16,335.66C1477.17,335.66 1470.86,329.35 1470.86,280.99L1470.86,64.39C1470.86,16.03 1478.22,9.72 1517.16,9.72L1517.16,0.26L1376.14,0.26L1376.14,9.72C1416.13,9.72 1422.45,16.03 1422.45,64.39L1422.45,145.35C1422.45,157.97 1419.29,161.13 1407.71,161.13L1254.07,161.13C1243.54,161.13 1239.33,157.97 1239.33,149.56L1239.33,64.39L1240.39,64.39Z" style="fill:rgb(18,18,18);fill-rule:nonzero;"/>
</svg>
